svg/u1f6a3_1f3fb_200d_2640.svg

<svg viewBox="0 0 128 128" xmlns="http://www.w3.org/2000/svg">
  <path id="head" d="M77.49,31.28c0.02,1.2-2.51,1.46-2.75,1.63c-0.27,0.2-0.46,0.67-0.66,1.24 c-0.14,0.4-0.3,0.88-0.54,1.35l-0.01,0.02c-0.75,1.55-2.19,3.1-6.05,2.65c-2.54-0.29-2.79-0.43-3.59-0.5 c-1.6-0.15-2.81,2.29-2.81,2.29s-2.79,5.76-6.87,3.59c-4.65-2.48-3.95-4.94-3.95-4.94s3.55-4.58,2.88-9.14 c-0.04-0.31-0.11-0.62-0.19-0.93c-0.32-1.17-0.52-2.66-0.58-4.24c-0.02-0.42-0.03-0.84-0.03-1.27v-0.01c0-2.08,0.2-4.26,0.58-6.14 c0.29-1.55,0.72-2.91,1.24-3.86c0-0.01,0.01-0.01,0.01-0.02c0.12-0.2,0.24-0.39,0.37-0.55c0.07-0.1,0.14-0.18,0.21-0.26 c0.2-0.21,0.4-0.43,0.63-0.63c3.21-3.01,8.42-4.8,12.75-4.02c0.57,0.1,1.12,0.24,1.66,0.45c0.38,0.14,0.74,0.29,1.08,0.46 c4.64,2.19,6.57,6.53,6.39,11.44c0,0.07-0.01,0.13-0.01,0.2c-0.01,0.29-0.04,0.59-0.07,0.87c-0.01,0.11-0.02,0.21-0.03,0.31 c-0.17,1.39-0.51,2.67-0.93,3.62c-0.07,0.15-0.6,1.24-0.69,1.59C75.06,27.81,77.47,29.69,77.49,31.28z" fill="#F9DDBD"/>
  <path id="mouth" d="M74.09,34.15c-0.14,0.4-0.3,0.88-0.54,1.35l-0.01,0.02c-0.92-0.12-1.78-0.51-2.44-1.23 c-0.72-0.79-0.01-1.37,0.87-0.78C72.46,33.84,73.35,34.1,74.09,34.15z" fill="#444444"/>
  <ellipse id="eye" cx="71.32" cy="26.45" fill="#312D2D" rx="1.88" ry="1.23" transform="matrix(0.2199 -0.9755 0.9755 0.2199 29.8348 90.2068)"/>
  <path id="eyebrow" d="M72.79,23.9c1.14,0.51,1.52-0.23,1.22-0.91c-0.22-0.51-0.89-0.98-2.31-0.9 c-1.34,0.08-1.98,0.75-2.39,1.17c-0.42,0.41-0.44,0.87-0.14,0.95C69.56,24.3,71.38,23.27,72.79,23.9z" fill="#454140"/>
  <radialGradient id="shirt_2_" cx="50.523" cy="48.201" gradientTransform="matrix(1 0 0 1 0 2)" gradientUnits="userSpaceOnUse" r="17.081">
    <stop offset="0.3637" stop-color="#651FFF"/>
    <stop offset="0.8121" stop-color="#5914F2"/>
    <stop offset="1" stop-color="#530EEB"/>
  </radialGradient>
  <path id="shirt" d="M36.1,65.44l0.59-2.34l7.95-16.9c1.67-3.55,4.62-8.05,9.23-9.33 c0.88-0.24,1.75-0.37,2.59-0.37c1.49,0,4.17,0.41,5.49,3.14l2.38,4.94l-2.44,8.69l-4.31,12.37l-0.42,1.79L36.1,65.44z" fill="url(#shirt_2_)"/>
  <polygon id="pants" fill="#7C7C7C" points="35.13,72.23 35.13,69 36.56,63.53 57.97,66.29 73.79,69.35 73.79,72.23 "/>
  <g id="boat">
    <radialGradient id="SVGID_1_" cx="63.4" cy="42.36" gradientTransform="matrix(1 0 0 -0.4605 0 105.1468)" gradientUnits="userSpaceOnUse" r="40.4295">
      <stop offset="0.5" stop-color="#FF9800"/>
      <stop offset="0.7654" stop-color="#FA8B00"/>
      <stop offset="0.9949" stop-color="#F57C00"/>
    </radialGradient>
    <path d="M7.61,73.15h111.59c0,0-0.13,17.86-10.14,24.98h-81.9C27.15,98.13,13.95,88.22,7.61,73.15z" fill="url(#SVGID_1_)"/>
    <path d="M124,72.14c-0.01,2.49-2.03,4.5-4.52,4.5H8.51c-2.49,0-4.51-2.01-4.51-4.5s2.02-4.51,4.51-4.51 h110.99C121.99,67.63,124,69.65,124,72.14z" fill="#E65100"/>
  </g>
  <g id="water">
    <rect fill="#039BE5" height="30.42" width="120" x="3.99" y="93.58"/>
  </g>
  <path d="M124.01,85.38c-0.01,0-0.01,0.01-0.02,0.01c-2.64,0-4.84,6.03-10.66,6.03s-11.69-7.08-17.32-7.08 c-5.65,0-8.96,6.2-14.67,7.08h-2.67c-5.71-0.88-9.02-7.08-14.65-7.08c-3.78,0-8.95,6.2-14.67,7.08h-2.67 c-5.71-0.88-9.02-7.08-14.65-7.08c-5.64,0-8.95,6.2-14.67,7.08h-2.72c-4.22-0.67-7.7-6.03-10.65-6.03v14.74H4v6.19 c3.52-1.8,6.43-5.36,10.64-6.03h2.73c5.71,0.88,9.02,7.08,14.66,7.08s8.95-6.2,14.66-7.08h2.67c5.71,0.88,9.02,7.08,14.66,7.08 c5.63,0,8.94-6.2,14.66-7.08h2.67c5.71,0.88,9.02,7.08,14.66,7.08c5.63,0,8.94-6.2,14.66-7.08h2.67c4.23,0.65,7.14,4.22,10.66,6.03 v-6.19h0.01L124.01,85.38L124.01,85.38z" fill="#29B6F6"/>
  <g id="paddle">
    <polygon enable-background="new " fill="#3D3D3D" opacity="0.2" points="60.25,99.18 82.58,76.64 91.5,67.63 82.15,67.63 73.22,76.64 58.42,91.58 "/>
    <rect fill="#FFA726" height="6.65" transform="matrix(0.7037 -0.7105 0.7105 0.7037 -30.5205 75.4962)" width="49" x="50.76" y="71.02"/>
    <polygon fill="#EA960F" points="90.4,63.8 81.53,63.32 91.39,53.08 96.65,57.37 "/>
    <path d="M60.79,88.84c-1.59-1.58-3.67-2.37-5.76-2.37c-2.11,0-4.22,0.81-5.82,2.43l-8.97,9.05 c-3.18,3.21-3.16,8.4,0.06,11.58c1.6,1.58,3.68,2.37,5.76,2.37c2.11,0,4.22-0.81,5.82-2.43l8.97-9.05 C64.04,97.21,64.01,92.02,60.79,88.84z" fill="#FFD54F"/>
  </g>
  <linearGradient id="arm_1_" gradientTransform="matrix(1 0 0 -1 0 128)" gradientUnits="userSpaceOnUse" x1="70.0216" x2="87.7425" y1="82.1781" y2="72.2711">
    <stop offset="0" stop-color="#FFD29C"/>
    <stop offset="0.5" stop-color="#F9DDBD"/>
  </linearGradient>
  <path id="arm" d="M98.72,53.62c-0.4-0.5-1.89-1.06-2.5-1.28c0.04-0.33-0.04-0.67-0.27-0.94l-1.39-1.7 c-0.17-0.21-0.4-0.33-0.64-0.4c-0.11-0.04-0.22-0.06-0.34-0.07c-0.04,0-0.08-0.01-0.13-0.01c-0.01,0-0.02,0-0.03,0 c-0.07,0-0.14,0.01-0.2,0.03c-0.13,0.02-0.25,0.06-0.37,0.13c0,0-0.01,0-0.01,0.01l-0.01,0c0,0-0.01,0-0.01,0.01l-3.46,2.13 l-0.26,0.16l-11.68-0.4l-10.75-7.46c-0.08-0.05-0.68-0.47-0.68-0.47l0,0l0,0l-4.23,6.09l0.01,0l0,0l12.08,8.39 c0.06,0.05,0.12,0.08,0.18,0.12c0.06,0.05,0.13,0.09,0.19,0.13c0.12,0.08,0.25,0.14,0.37,0.2c0.09,0.04,0.18,0.08,0.27,0.12 c0.1,0.04,0.21,0.07,0.31,0.1c0.12,0.04,0.25,0.08,0.38,0.1c0.03,0.01,0.06,0,0.08,0.01c0.19,0.03,0.38,0.06,0.58,0.06 c0.03,0,0.07-0.01,0.1-0.01h0.04v0.01l9.86,0.34l-0.02,0.06l0,0l0,0.02c0,0,4.69,3.24,6.94,3.54c0.42,0.1,1.13,0.26,1.76,0.26 c0.5,0,0.95-0.1,1.15-0.38c0.2-0.28,0.08-0.9,0.18-1.07c0.25-0.43,0.88-0.39,1.16-0.96c0.04-0.08,0.05-0.18,0.06-0.29 c0.02-0.32-0.07-0.75-0.13-1.03c-0.03-0.24,0.16-0.57,0.37-0.66c0.48-0.2,0.72-0.39,0.85-0.79c0.04-0.11,0.06-0.22,0.06-0.34 c0.03-0.32-0.06-0.65-0.21-0.96c-0.05-0.1-0.09-0.21-0.1-0.33c-0.04-0.34,0.07-0.71,0.34-0.9c0.2-0.14,0.37-0.48,0.36-0.86 C98.97,54.09,98.9,53.84,98.72,53.62z" fill="url(#arm_1_)"/>
  <g id="shirt_1_">
    <path d="M61.56,37.8c-1.03-0.74-2.21-1.1-3.39-1.1c-1.8,0-3.58,0.84-4.72,2.41 c-1.88,2.6-1.29,6.23,1.31,8.11l9.64,6.95l6.8-9.42L61.56,37.8z" fill="#3615AF"/>
  </g>
  <g id="hairGroup">
    <path id="hair_2_" d="M39.76,24.7c1.28-8.11-2.47-13.89,3.9-19.12c4.19-3.45,10.65-0.42,11.53,1.39 c1.72,3.5-2.75,5.49-3.95,6.83c-1.78,1.98-1.08,11.62-6.39,17.37c-7.19,7.79-12.53,5.32-12.53,5.32S38.54,32.51,39.76,24.7z" fill="#312D2D"/>
    <g id="hairHighlights">
      <radialGradient id="SVGID_2_" cx="-172.1441" cy="128.554" gradientTransform="matrix(-0.9543 -0.2988 0.3613 -1.1538 -161.9246 117.092)" gradientUnits="userSpaceOnUse" r="15.0572">
        <stop offset="0.5264" stop-color="#454140" stop-opacity="0"/>
        <stop offset="1" stop-color="#454140"/>
      </radialGradient>
      <path d="M40.06,20.86c0.03-6.17-1.71-10.92,3.6-15.28c4.19-3.45,10.65-0.42,11.53,1.39 c1.72,3.5-2.75,5.49-3.95,6.83C49.47,15.78,40.06,20.86,40.06,20.86z" fill="url(#SVGID_2_)"/>
      <radialGradient id="SVGID_3_" cx="-158.3582" cy="116.795" gradientTransform="matrix(0.9352 0.354 -0.4368 1.1538 232.1479 -49.567)" gradientUnits="userSpaceOnUse" r="16.1023">
        <stop offset="0" stop-color="#454140"/>
        <stop offset="0.5264" stop-color="#454140" stop-opacity="0"/>
      </radialGradient>
      <path d="M39.76,24.7c0.32-2.03,0.33-4.07,0.23-6.12c-0.08-1.82-0.25-3.38,1.18-4.75 c2.26-2.17,6-2.58,8.68-0.95c0.81,0.49,1.25,1.04,0.96,1.91c-0.21,0.63-0.46,1.18-0.6,1.85c-0.31,1.5-0.55,3.02-0.87,4.52 c-0.77,3.6-1.96,7.27-4.5,10.02c-7.19,7.79-12.53,5.32-12.53,5.32S38.54,32.51,39.76,24.7z" fill="url(#SVGID_3_)"/>
      <radialGradient id="SVGID_4_" cx="-165.2005" cy="126.2896" gradientTransform="matrix(0.9341 0.3571 -1.1391 2.9792 339.7163 -296.1367)" gradientUnits="userSpaceOnUse" r="8.8301">
        <stop offset="0.5264" stop-color="#454140" stop-opacity="0"/>
        <stop offset="1" stop-color="#454140"/>
      </radialGradient>
      <path d="M37.76,36.27c0,0,7.1-2.58,10-9.75c1.16-2.87,1.69-5.38,1.94-7.08 c0.22-1.49,0.23-6.48,1.76-7.88" fill="url(#SVGID_4_)"/>
    </g>
  </g>
  <g id="hairGroup_1_">
    <path id="hair_3_" d="M54.5,9.27c3.1-2.56,7.55-3.72,11.91-3.09c3.79,0.55,8.76,2.47,11.33,6.21 c1.54,2.25,2.19,4.95,1.34,7.64c-0.51,1.61-2.03,2.2-2.03,2.2s-0.83-4.07-4.86-3.86c-4.23,0.22-5.83-0.94-5.83-0.94 c0.74,3.47-0.8,4.99-2.05,5.79c-0.71,0.46-1.4,1.03-1.79,1.36c-0.2,0.18-0.34,0.14-0.36-0.1c-0.06-0.55-0.17-1.54-0.31-2.02 c-0.46-1.62-1.76-1.33-1.77-1.33c-1.74,0.26-2.97,3.49-0.68,5.97c0.06,0.06,0.22,0.22,0.05,0.53c-1.71,3.19-5.75,2.53-5.97,2.36 c0,0-0.01-0.01-0.01-0.01c-0.02-0.01-0.04-0.03-0.05-0.04c-0.49-0.35-0.72-0.86-0.69-1.49c0.1-2.32-0.75-3.16-1.27-4.28 c-0.6-1.29-1.28-2.75-1.12-6.39C50.49,14.35,51.93,11.4,54.5,9.27z" fill="#312D2D"/>
    <radialGradient id="hairHighlights_2_" cx="-187.4861" cy="132.7303" gradientTransform="matrix(-0.9817 -0.1902 0.1902 -0.9817 -144.6501 113.6575)" gradientUnits="userSpaceOnUse" r="13.7068">
      <stop offset="0.5264" stop-color="#454140" stop-opacity="0"/>
      <stop offset="1" stop-color="#454140"/>
    </radialGradient>
    <path id="hairHighlights_1_" d="M54.5,9.27c3.1-2.56,7.55-3.72,11.91-3.09 c3.79,0.55,8.76,2.47,11.33,6.21c1.54,2.25,2.19,4.95,1.34,7.64c-0.51,1.61-2.03,2.2-2.03,2.2s-0.83-4.07-4.86-3.86 c-4.23,0.22-5.83-0.94-5.83-0.94c0.74,3.47-0.8,4.99-2.05,5.79c-0.71,0.46-1.4,1.03-1.79,1.36c-0.2,0.18-0.34,0.14-0.36-0.1 c-0.06-0.55-0.17-1.54-0.31-2.02c-0.46-1.62-1.76-1.33-1.77-1.33c-1.74,0.26-2.97,3.49-0.68,5.97c0.06,0.06,0.22,0.22,0.05,0.53 c-1.71,3.19-5.75,2.53-5.97,2.36c0,0-0.01-0.01-0.01-0.01c-0.02-0.01-0.04-0.03-0.05-0.04c-0.49-0.35-0.72-0.86-0.69-1.49 c0.1-2.32-0.75-3.16-1.27-4.28c-0.6-1.29-1.28-2.75-1.12-6.39C50.49,14.35,51.93,11.4,54.5,9.27z" fill="url(#hairHighlights_2_)"/>
  </g>
</svg>

<svg viewBox="0 0 128 128" xmlns="http://www.w3.org/2000/svg">
  <defs>
    <radialGradient id="shirt_2_" cx="50.523" cy="50.201" gradientUnits="userSpaceOnUse" r="17.081">
      <stop offset="0.3637" stop-color="#651FFF"/>
      <stop offset="0.8121" stop-color="#5914F2"/>
      <stop offset="1" stop-color="#530EEB"/>
    </radialGradient>
    <radialGradient id="SVGID_1_" cx="63.4" cy="-185.971813" gradientTransform="matrix(1 0 0 -0.4605 0 0)" gradientUnits="userSpaceOnUse" r="40.4295">
      <stop offset="0.5" stop-color="#FF9800"/>
      <stop offset="0.7654" stop-color="#FA8B00"/>
      <stop offset="0.9949" stop-color="#F57C00"/>
    </radialGradient>
    <linearGradient id="arm_1_" gradientTransform="matrix(1 0 0 -1 0 0)" gradientUnits="userSpaceOnUse" x1="70.0216" x2="87.7425" y1="-45.8219" y2="-55.7289">
      <stop offset="0" stop-color="#FFD29C"/>
      <stop offset="0.5" stop-color="#F9DDBD"/>
    </linearGradient>
    <radialGradient id="hairHighlights_2_" cx="-67.09003" cy="-6.372107" gradientTransform="matrix(-0.9817 -0.1902 0.1902 -0.9817 0 0)" gradientUnits="userSpaceOnUse" r="13.7068">
      <stop offset="0.5264" stop-color="#454140" stop-opacity="0"/>
      <stop offset="1" stop-color="#454140"/>
    </radialGradient>
    <radialGradient id="SVGID_2_" cx="-52.60734" cy="-3.88627" gradientTransform="matrix(-0.9543 -0.2988 0.3613 -1.1538 0 0)" gradientUnits="userSpaceOnUse" r="15.0572">
      <stop offset="0.5264" stop-color="#454140" stop-opacity="0"/>
      <stop offset="1" stop-color="#454140"/>
    </radialGradient>
    <radialGradient id="SVGID_3_" cx="41.211527" cy="12.604773" gradientTransform="matrix(0.9352 0.354 -0.4368 1.1538 0 0)" gradientUnits="userSpaceOnUse" r="16.1023">
      <stop offset="0" stop-color="#454140"/>
      <stop offset="0.5264" stop-color="#454140" stop-opacity="0"/>
    </radialGradient>
    <radialGradient id="SVGID_4_" cx="46.344622" cy="1.531456" gradientTransform="matrix(0.9341 0.3571 -1.1391 2.9792 0 0)" gradientUnits="userSpaceOnUse" r="8.8301">
      <stop offset="0.5264" stop-color="#454140" stop-opacity="0"/>
      <stop offset="1" stop-color="#454140"/>
    </radialGradient>
  </defs>
  <path id="head" d="M77.49,31.28 C77.51,32.48 74.98,32.74 74.74,32.91 C74.47,33.11 74.28,33.58 74.08,34.15 C73.94,34.55 73.78,35.03 73.54,35.5 L73.53,35.52 C72.78,37.07 71.34,38.62 67.48,38.17 C64.94,37.88 64.69,37.74 63.89,37.67 C62.29,37.52 61.08,39.96 61.08,39.96 C61.08,39.96 58.29,45.72 54.21,43.55 C49.56,41.07 50.26,38.61 50.26,38.61 C50.26,38.61 53.81,34.03 53.14,29.47 C53.1,29.16 53.03,28.85 52.95,28.54 C52.63,27.37 52.43,25.88 52.37,24.3 C52.35,23.88 52.34,23.46 52.34,23.03 L52.34,23.02 C52.34,20.94 52.54,18.76 52.92,16.88 C53.21,15.33 53.64,13.97 54.16,13.02 C54.16,13.01 54.17,13.01 54.17,13 C54.29,12.8 54.41,12.61 54.54,12.45 C54.61,12.35 54.68,12.27 54.75,12.19 C54.95,11.98 55.15,11.76 55.38,11.56 C58.59,8.55 63.8,6.76 68.13,7.54 C68.7,7.64 69.25,7.78 69.79,7.99 C70.17,8.13 70.53,8.28 70.87,8.45 C75.51,10.64 77.44,14.98 77.26,19.89 C77.26,19.96 77.25,20.02 77.25,20.09 C77.24,20.38 77.21,20.68 77.18,20.96 C77.17,21.07 77.16,21.17 77.15,21.27 C76.98,22.66 76.64,23.94 76.22,24.89 C76.15,25.04 75.62,26.13 75.53,26.48 C75.06,27.81 77.47,29.69 77.49,31.28 Z" fill="#F9DDBD"/>
  <path id="mouth" d="M74.09,34.15 C73.95,34.55 73.79,35.03 73.55,35.5 L73.54,35.52 C72.62,35.4 71.76,35.01 71.1,34.29 C70.38,33.5 71.09,32.92 71.97,33.51 C72.46,33.84 73.35,34.1 74.09,34.15 Z" fill="#444444"/>
  <path id="eye" d="M71.733,24.617 C72.396,24.766 72.748,25.708 72.52,26.721 C72.292,27.734 71.569,28.434 70.907,28.284 C70.244,28.135 69.892,27.193 70.12,26.18 C70.348,25.167 71.071,24.467 71.733,24.617 Z" fill="#312D2D"/>
  <path id="eyebrow" d="M72.79,23.9 C73.93,24.41 74.31,23.67 74.01,22.99 C73.79,22.48 73.12,22.01 71.7,22.09 C70.36,22.17 69.72,22.84 69.31,23.26 C68.89,23.67 68.87,24.13 69.17,24.21 C69.56,24.3 71.38,23.27 72.79,23.9 Z" fill="#454140"/>
  <path id="shirt" d="M36.1,65.44 L36.69,63.1 L44.64,46.2 C46.31,42.65 49.26,38.15 53.87,36.87 C54.75,36.63 55.62,36.5 56.46,36.5 C57.95,36.5 60.63,36.91 61.95,39.64 L64.33,44.58 L61.89,53.27 L57.58,65.64 L57.16,67.43 L36.1,65.44 Z" fill="url(#shirt_2_)"/>
  <path id="pants" d="M35.13,72.23 L35.13,69 L36.56,63.53 L57.97,66.29 L73.79,69.35 L73.79,72.23 Z" fill="#7C7C7C"/>
  <path d="M7.61,73.15 L119.2,73.15 C119.2,73.15 119.07,91.01 109.06,98.13 L27.16,98.13 C27.15,98.13 13.95,88.22 7.61,73.15 Z" fill="url(#SVGID_1_)"/>
  <path d="M124,72.14 C123.99,74.63 121.97,76.64 119.48,76.64 L8.51,76.64 C6.02,76.64 4,74.63 4,72.14 C4,69.65 6.02,67.63 8.51,67.63 L119.5,67.63 C121.99,67.63 124,69.65 124,72.14 Z" fill="#E65100"/>
  <path d="M3.99,93.58 L123.99,93.58 L123.99,124 L3.99,124 L3.99,93.58 Z" fill="#039BE5"/>
  <path d="M124.01,85.38 C124,85.38 124,85.39 123.99,85.39 C121.35,85.39 119.15,91.42 113.33,91.42 C107.51,91.42 101.64,84.34 96.01,84.34 C90.36,84.34 87.05,90.54 81.34,91.42 L78.67,91.42 C72.96,90.54 69.65,84.34 64.02,84.34 C60.24,84.34 55.07,90.54 49.35,91.42 L46.68,91.42 C40.97,90.54 37.66,84.34 32.03,84.34 C26.39,84.34 23.08,90.54 17.36,91.42 L14.64,91.42 C10.42,90.75 6.94,85.39 3.99,85.39 L3.99,100.13 L4,100.13 L4,106.32 C7.52,104.52 10.43,100.96 14.64,100.29 L17.37,100.29 C23.08,101.17 26.39,107.37 32.03,107.37 C37.67,107.37 40.98,101.17 46.69,100.29 L49.36,100.29 C55.07,101.17 58.38,107.37 64.02,107.37 C69.65,107.37 72.96,101.17 78.68,100.29 L81.35,100.29 C87.06,101.17 90.37,107.37 96.01,107.37 C101.64,107.37 104.95,101.17 110.67,100.29 L113.34,100.29 C117.57,100.94 120.48,104.51 124,106.32 L124,100.13 L124.01,100.13 L124.01,85.38 L124.01,85.38 Z" fill="#29B6F6"/>
  <path d="M60.25,99.18 L82.58,76.64 L91.5,67.63 L82.15,67.63 L73.22,76.64 L58.42,91.58 Z" fill="#3D3D3D" opacity="0.2"/>
  <path d="M55.659,89.408 L90.14,54.593 L94.865,59.273 L60.384,94.088 L55.659,89.408 Z" fill="#FFA726"/>
  <path d="M90.4,63.8 L81.53,63.32 L91.39,53.08 L96.65,57.37 Z" fill="#EA960F"/>
  <path d="M60.79,88.84 C59.2,87.26 57.12,86.47 55.03,86.47 C52.92,86.47 50.81,87.28 49.21,88.9 L40.24,97.95 C37.06,101.16 37.08,106.35 40.3,109.53 C41.9,111.11 43.98,111.9 46.06,111.9 C48.17,111.9 50.28,111.09 51.88,109.47 L60.85,100.42 C64.04,97.21 64.01,92.02 60.79,88.84 Z" fill="#FFD54F"/>
  <path id="arm" d="M98.72,53.62 C98.32,53.12 96.83,52.56 96.22,52.34 C96.26,52.01 96.18,51.67 95.95,51.4 L94.56,49.7 C94.39,49.49 94.16,49.37 93.92,49.3 C93.81,49.26 93.7,49.24 93.58,49.23 C93.54,49.23 93.5,49.22 93.45,49.22 C93.44,49.22 93.43,49.22 93.42,49.22 C93.35,49.22 93.28,49.23 93.22,49.25 C93.09,49.27 92.97,49.31 92.85,49.38 C92.85,49.38 92.84,49.38 92.84,49.39 L92.83,49.39 C92.83,49.39 92.82,49.39 92.82,49.4 L89.36,51.53 L89.1,51.69 L77.42,51.29 L66.67,43.83 C66.59,43.78 65.99,43.36 65.99,43.36 L65.99,43.36 L65.99,43.36 L61.76,49.45 L61.77,49.45 L61.77,49.45 L73.85,57.84 C73.91,57.89 73.97,57.92 74.03,57.96 C74.09,58.01 74.16,58.05 74.22,58.09 C74.34,58.17 74.47,58.23 74.59,58.29 C74.68,58.33 74.77,58.37 74.86,58.41 C74.96,58.45 75.07,58.48 75.17,58.51 C75.29,58.55 75.42,58.59 75.55,58.61 C75.58,58.62 75.61,58.61 75.63,58.62 C75.82,58.65 76.01,58.68 76.21,58.68 C76.24,58.68 76.28,58.67 76.31,58.67 L76.35,58.67 L76.35,58.68 L86.21,59.02 L86.19,59.08 L86.19,59.08 L86.19,59.1 C86.19,59.1 90.88,62.34 93.13,62.64 C93.55,62.74 94.26,62.9 94.89,62.9 C95.39,62.9 95.84,62.8 96.04,62.52 C96.24,62.24 96.12,61.62 96.22,61.45 C96.47,61.02 97.1,61.06 97.38,60.49 C97.42,60.41 97.43,60.31 97.44,60.2 C97.46,59.88 97.37,59.45 97.31,59.17 C97.28,58.93 97.47,58.6 97.68,58.51 C98.16,58.31 98.4,58.12 98.53,57.72 C98.57,57.61 98.59,57.5 98.59,57.38 C98.62,57.06 98.53,56.73 98.38,56.42 C98.33,56.32 98.29,56.21 98.28,56.09 C98.24,55.75 98.35,55.38 98.62,55.19 C98.82,55.05 98.99,54.71 98.98,54.33 C98.97,54.09 98.9,53.84 98.72,53.62 Z" fill="url(#arm_1_)"/>
  <path d="M61.56,37.8 C60.53,37.06 59.35,36.7 58.17,36.7 C56.37,36.7 54.59,37.54 53.45,39.11 C51.57,41.71 52.16,45.34 54.76,47.22 L64.4,54.17 L71.2,44.75 L61.56,37.8 Z" fill="#3615AF"/>
  <path id="hair_2_" d="M39.76,24.7 C41.04,16.59 37.29,10.81 43.66,5.58 C47.85,2.13 54.31,5.16 55.19,6.97 C56.91,10.47 52.44,12.46 51.24,13.8 C49.46,15.78 50.16,25.42 44.85,31.17 C37.66,38.96 32.32,36.49 32.32,36.49 C32.32,36.49 38.54,32.51 39.76,24.7 Z" fill="#312D2D"/>
  <path d="M40.06,20.86 C40.09,14.69 38.35,9.94 43.66,5.58 C47.85,2.13 54.31,5.16 55.19,6.97 C56.91,10.47 52.44,12.46 51.24,13.8 C49.47,15.78 40.06,20.86 40.06,20.86 Z" fill="url(#SVGID_2_)"/>
  <path d="M39.76,24.7 C40.08,22.67 40.09,20.63 39.99,18.58 C39.91,16.76 39.74,15.2 41.17,13.83 C43.43,11.66 47.17,11.25 49.85,12.88 C50.66,13.37 51.1,13.92 50.81,14.79 C50.6,15.42 50.35,15.97 50.21,16.64 C49.9,18.14 49.66,19.66 49.34,21.16 C48.57,24.76 47.38,28.43 44.84,31.18 C37.65,38.97 32.31,36.5 32.31,36.5 C32.31,36.5 38.54,32.51 39.76,24.7 Z" fill="url(#SVGID_3_)"/>
  <path d="M37.76,36.27 C37.76,36.27 44.86,33.69 47.76,26.52 C48.92,23.65 49.45,21.14 49.7,19.44 C49.92,17.95 49.93,12.96 51.46,11.56" fill="url(#SVGID_4_)"/>
  <path id="hair_3_" d="M54.5,9.27 C57.6,6.71 62.05,5.55 66.41,6.18 C70.2,6.73 75.17,8.65 77.74,12.39 C79.28,14.64 79.93,17.34 79.08,20.03 C78.57,21.64 77.05,22.23 77.05,22.23 C77.05,22.23 76.22,18.16 72.19,18.37 C67.96,18.59 66.36,17.43 66.36,17.43 C67.1,20.9 65.56,22.42 64.31,23.22 C63.6,23.68 62.91,24.25 62.52,24.58 C62.32,24.76 62.18,24.72 62.16,24.48 C62.1,23.93 61.99,22.94 61.85,22.46 C61.39,20.84 60.09,21.13 60.08,21.13 C58.34,21.39 57.11,24.62 59.4,27.1 C59.46,27.16 59.62,27.32 59.45,27.63 C57.74,30.82 53.7,30.16 53.48,29.99 C53.48,29.99 53.47,29.98 53.47,29.98 C53.45,29.97 53.43,29.95 53.42,29.94 C52.93,29.59 52.7,29.08 52.73,28.45 C52.83,26.13 51.98,25.29 51.46,24.17 C50.86,22.88 50.18,21.42 50.34,17.78 C50.49,14.35 51.93,11.4 54.5,9.27 Z" fill="#312D2D"/>
  <path id="hairHighlights_1_" d="M54.5,9.27 C57.6,6.71 62.05,5.55 66.41,6.18 C70.2,6.73 75.17,8.65 77.74,12.39 C79.28,14.64 79.93,17.34 79.08,20.03 C78.57,21.64 77.05,22.23 77.05,22.23 C77.05,22.23 76.22,18.16 72.19,18.37 C67.96,18.59 66.36,17.43 66.36,17.43 C67.1,20.9 65.56,22.42 64.31,23.22 C63.6,23.68 62.91,24.25 62.52,24.58 C62.32,24.76 62.18,24.72 62.16,24.48 C62.1,23.93 61.99,22.94 61.85,22.46 C61.39,20.84 60.09,21.13 60.08,21.13 C58.34,21.39 57.11,24.62 59.4,27.1 C59.46,27.16 59.62,27.32 59.45,27.63 C57.74,30.82 53.7,30.16 53.48,29.99 C53.48,29.99 53.47,29.98 53.47,29.98 C53.45,29.97 53.43,29.95 53.42,29.94 C52.93,29.59 52.7,29.08 52.73,28.45 C52.83,26.13 51.98,25.29 51.46,24.17 C50.86,22.88 50.18,21.42 50.34,17.78 C50.49,14.35 51.93,11.4 54.5,9.27 Z" fill="url(#hairHighlights_2_)"/>
</svg>
